shelter/assets/icons/icon-marker.svg

<svg width="22" height="32" viewBox="0 0 22 32" fill="none" xmlns="http://www.w3.org/2000/svg">
<path d="M11 0C4.93475 0 3.05176e-05 4.78519 3.05176e-05 10.6667C3.05176e-05 12.4323 0.455262 14.1829 1.32067 15.7357L10.3985 31.6562C10.5193 31.8685 10.7496 32 11 32C11.2504 32 11.4807 31.8685 11.6016 31.6562L20.6827 15.7304C21.5448 14.1829 22 12.4323 22 10.6666C22 4.78519 17.0653 0 11 0ZM19.4762 15.0905L11 29.9557L2.52717 15.0964C1.7732 13.7435 1.37507 12.2116 1.37507 10.6667C1.37507 5.52019 5.69278 1.33337 11 1.33337C16.3073 1.33337 20.625 5.52025 20.625 10.6667C20.625 12.2116 20.2269 13.7435 19.4762 15.0905Z" fill="#F1CDB3"/>
<path d="M11 5.33329C7.9674 5.33329 5.50008 7.72585 5.50008 10.6666C5.50008 13.6074 7.9674 16 11 16C14.0327 16 16.5 13.6074 16.5 10.6667C16.5 7.72592 14.0327 5.33329 11 5.33329ZM11 14.6667C8.72537 14.6667 6.87505 12.8724 6.87505 10.6667C6.87505 8.46092 8.72537 6.66667 11 6.66667C13.2747 6.66667 15.125 8.46092 15.125 10.6667C15.125 12.8724 13.2747 14.6667 11 14.6667Z" fill="#F1CDB3"/>
</svg>

<svg width="22" height="32" fill="none" xmlns="http://www.w3.org/2000/svg"><path d="M11 0C4.935 0 0 4.785 0 10.667c0 1.765.455 3.516 1.32 5.069l9.079 15.92A.69.69 0 0 0 11 32a.69.69 0 0 0 .602-.344l9.08-15.926A10.429 10.429 0 0 0 22 10.667C22 4.785 17.065 0 11 0zm8.476 15.09L11 29.956l-8.473-14.86a9.121 9.121 0 0 1-1.152-4.43c0-5.146 4.318-9.333 9.625-9.333s9.625 4.187 9.625 9.334a9.115 9.115 0 0 1-1.149 4.424z" fill="#F1CDB3"/><path d="M11 5.333c-3.033 0-5.5 2.393-5.5 5.334C5.5 13.607 7.967 16 11 16s5.5-2.393 5.5-5.333c0-2.941-2.467-5.334-5.5-5.334zm0 9.334c-2.275 0-4.125-1.795-4.125-4 0-2.206 1.85-4 4.125-4s4.125 1.794 4.125 4c0 2.205-1.85 4-4.125 4z" fill="#F1CDB3"/></svg>
